X:1
T:Title
%%score { ( 1 4 ) | ( 2 3 ) }
L:1/8
Q:1/4=106
M:3/4
K:Bb
V:1 treble nm="Grand Piano"
V:4 treble 
V:2 bass 
V:3 bass 
V:1
 [DF]2 [Fd]2 [Ec]B | F4 F-[DF] | G2 B2 [B,EG]2 | [B,DF]4 z2 | F2 z2 [B,FA]2 | [FA]2 G2 B2 | %6
w: W.~H.~Doane * * *||||||
 F2 d2 c2 | [DB]4 z2 | A2 c2 A2 | F4 z2 | F2 B2 B2 | d2 c2 z2 | c4 c2 | [Fd]2 [DB]2 [DG]2 | %14
w: ||||||||
 F=E A2 G2 | F4 z2 | [DF]2 [Fd]2 [Ec]B | [DF]4 F2 | G2 B2 G2 | [DF]4 z2 | [DB]4 [FA]2 | %21
w: |||||||
 [FA]2 G2 B2 | F2 d2 c2 | [DB]4 z2 |] %24
w: |||
V:2
 [B,,B,]4 z D | z2 D2 z B, | [E,E]4 z2 | B,,4 z2 | z2[K:treble] B2[K:bass] D,2 | z2 E2 [E,G,E]2 | %6
 D2 F2 [F,A,E]2 | [B,,B,]4 z2 | C2 z2 z2 | [F,E]4 [F,A,E]2 | B,2- [G,B,E]2 [^F,B,=E]2 | C2 z2 z2 | %12
 [F,A,F]4 [F,A,F]2 | [B,,B,]4 [B,,B,]2 | .A,2 z2 z2 | [F,A,C]4 z2 | [B,,B,]4 z D | B,,4 z B, | %18
 B,2 G,2 [E,B,E]2 | [B,,B,]4 z2 | [B,,B,]4 [D,B,]2 | z2 E2 [E,G,E]2 | D2 F2 [F,A,E]2 | %23
 [B,,B,]4 z2 |] %24
V:3
 z2 z2 [B,,F,]2 | B,,4 B,,2 | B,2 G,2 E,2 | x6 | B,,4[K:treble][K:bass] z2 | E,4 z2 | [F,B,]4 z2 | %7
 x6 | [F,E]2- [F,A,E]2 [F,CE]2 | A,2 z2 z2 | [F,D]2 z2 z2 | [F,F]2- [F,A,F]2 z2 | x6 | x6 | %14
 [C,C]-[C,-G,C] [C,C]2 [C,B,C]2 | x6 | z2 z2 [B,,F,]2 | z2 z2 B,,2 | [E,E]4 z2 | x6 | x6 | %21
 [E,B,]4 z2 | [F,B,]4 z2 | x6 |] %24
V:4
 x6 | [F,D]2 z2 .[CE]2 | x6 | x6 | [B,D]4 z2 | B,4 z2 | x6 | x6 | x6 | z2 C2 F2 | x6 | x6 | x6 | %13
 x6 | x6 | x6 | x6 | F,2 z2 [B,E]D | x6 | x6 | x6 | x6 | x6 | x6 |] %24

